X: 35574
T: Ryan's Fancy Arriving
R: reel
M: 4/4
K: Dmajor
|:DFAd ~B2AF|DFAd ~B2AF|E2FE AEFE|AEFE AEFE|
DFAd ~B2AF|DFAd ~B2AF|E2FE AEFE|D2FE EDD2:|
|:[M:6/4]defg afge fdec|[M:4/4] dBAG FDD2|defg afge|fdec d3c|
defg afge|fdec dBAF|G2AG FEDF|EDFE EDD2:|

